16x16/apps/bluejeans.svg

<svg height="16" width="16" xmlns="http://www.w3.org/2000/svg"><path d="m13 3.964 3-1.964v11l-3-1.964z" fill="#1f56a8"/><rect fill="#1c6bdd" height="13" rx="1.529" width="13" y="1"/><path d="m1.65 1.41h13.176v13.176h-13.176z" fill="none"/><path d="m4 4v7h3.332c.92 0 1.668-1.235 1.668-2 0-.367-.175-1.225-.455-1.5.28-.275.455-1.133.455-1.5 0-.765-.747-2-1.668-2zm1 1h2.332c.388 0 .668.471.668 1s-.28 1-.668 1h-2.332zm0 3h2.332c.388 0 .668.431.668 1 0 .512-.28 1-.668 1h-2.332z" fill="#f4f4f7"/></svg>

<svg height="16" width="16" xmlns="http://www.w3.org/2000/svg">
    <path d="M13 3.964 16 2v11l-3-1.964z" fill="#1f56a8"/>
    <rect fill="#1c6bdd" height="13" rx="1.529" width="13" y="1"/>
    <path d="M1.65 1.41h13.176v13.176H1.65z" fill="none"/>
    <path d="M4 4v7h3.332C8.252 11 9 9.765 9 9c0-.367-.175-1.225-.455-1.5C8.825 7.225 9 6.367 9 6c0-.765-.747-2-1.668-2zm1 1h2.332C7.72 5 8 5.471 8 6s-.28 1-.668 1H5zm0 3h2.332C7.72 8 8 8.431 8 9c0 .512-.28 1-.668 1H5z" fill="#f4f4f7"/>
</svg>
